X:1
T:Sheriff's Ride
M:4/4
L:1/4
K:Emin
|: B/A/ \
| G E E F/G/ | A/G/ F E B | e e e f/e/ | d B B c |
| d d e/d/ d/c/ | d/c/ B A E | G A d/c/B/A/ | B E E :|
| B \
| e2 e f/e/ | d B B2 | e e/f/ g f/e/ | d/e/ d B> c
| d d e/d/d/c/ | d/c/ B A E | G A d/c/B/A/ | B E E :|
